X:1
T:Title
L:1/8
Q:1/4=90
M:6/8
K:G
V:1 treble nm="Church Organ, Staff"
V:1
 D3 DEG | F3 d3 | D3 DEG | F3 F3 | G3 GFG | B3 G3 | G3 AA_B | B3 B3 | d3 ABA | d3 d3 | d3 AGA | %11
w: By~E.~Grace~Updegraff * * *|||||||||||
 d3 d3 | B3 Bcd | c3 E3 | D3 DDD | D3 D2 d | d2 A ABA | G3 B2 B | A2 A B2 A | A3 A2 d | d2 c B2 A | %21
w: ||||||||||
 G2 A B2 A | G2 D E2 F | G3 .G3 |] %24
w: |||

